assets/icons/qvision/no_drinks.svg

<svg width="24" height="24" viewBox="0 0 24 24" fill="none" xmlns="http://www.w3.org/2000/svg">
<g clip-path="url(#clip0_147_6240)">
<path d="M5.83014 3H21.0001V5L14.8001 11.97L9.83014 7H16.5701L18.3501 5H7.83014L5.83014 3ZM19.7801 22.61L18.0001 20.83V21H6.00014V19H11.0001V14L9.63014 12.46L1.39014 4.22L2.80014 2.81L3.00014 3L21.1901 21.19L19.7801 22.61ZM16.1701 19L13.0001 15.83V19H16.1701Z" fill="#323232"/>
</g>
<defs>
<clipPath id="clip0_147_6240">
<rect width="24" height="24" fill="white"/>
</clipPath>
</defs>
</svg>

<svg xmlns="http://www.w3.org/2000/svg" enable-background="new 0 0 24 24" height="24" viewBox="0 0 24 24" width="24"><g><rect fill="none" height="24" width="24"/><path d="M5.83,3H21v2l-6.2,6.97L9.83,7h6.74l1.78-2H7.83L5.83,3z M19.78,22.61L18,20.83V21H6v-2h5v-5l-1.37-1.54L1.39,4.22 l1.41-1.41L3,3l18.19,18.19L19.78,22.61z M16.17,19L13,15.83V19H16.17z"/></g></svg>
